X: 18089
T: Humours Of Ballydehob, The
R: jig
M: 6/8
K: Gmajor
d/c/|:BGG ABE|DGG AGE|DGG AGA|Bdd edc|
BGG ABE|DGG AGE|DEG ABc|BGG G2:|
c|:Bdd Acc|BdB cGE|DGG AGA|BAA ABc|
Bdd Acc|BdB cGE|DEG ABc|BGG G2:|

